X:1
T: My Lady's Gown Has Gaits On't
C:
R:Strathspey
Q: 128
K:G
M:4/4
L:1/16
|:D2|GG3 G3B A3G E3A|GG3 B3d e3d Bg3|GG3 G3B A3G E3c|B3d g3e d3B A3B|
GG3 G3B A3G E3A|GG3 B3d e3d Bg3|GG3 G3B A3G E3c|B3d g3e d3B A3c|
B3c d3G e3d d3c|B3c d3G FA3 A3c|B3c d3G e3d d3c|B3d g3e d3B A3c|
B3c d3G e3d d3c|B3c d3G FA3 A3c|B3c d3G e3d d3c|1B3d g3e d3B A3B:|2B3d g3e d6||
